X:1
T:Title
%%score { ( 1 3 ) | ( 2 4 ) }
L:1/8
M:6/8
K:F
V:1 treble nm="Grand Piano"
V:3 treble 
V:2 bass 
V:4 bass 
V:1
 z3 z2[Q:1/4=84] A | A>AA [GA]2 [GA] | [FA]3 F2 D | [DF]>[DF]D [DF]2 D | %4
[M:5/8] [A,CF]-[A,CF]- [A,CF]3 |[M:1/8] F |[M:3/4] A>A A B2 B | A3 F2 E | D>E F E2 D | %9
[M:5/8] ^C-C- C3 |[M:1/8] C |[M:3/4] A>A A B2 B | c3 F2 F | [DF]>[DF] [DF] [DFB]2 [^CFB] | %14
[M:5/8] [CFA]-[CFA]- [CFA]3 |[M:1/8] [CFA] |[M:3/4] [D^Fd]>[Fd] [Fd] [Ac]2 [Ac] | B3 A2 A | %18
 A>G F E2 D |[M:5/8] [^CA]-[CA]- [CA]3 |[M:1/8] c |[M:3/4] z z/ D/ E F2 G | A6 | z z/ E/ F G2 A | %24
[M:5/8] B-B- B3 |[M:1/8] C |[M:3/4] F2 G A2 [Gc]/[Gc]/ | %27
[M:17/16] [Ff]/-[Ff]/-[Ff]/-[Ff]/-[Ff]/-[Ff]-<[Ff][=B,F]/-[B,F]/-[B,F]-<[B,F][F=B]/[FB]/ | %28
[M:3/4] [Fc]>A F C2 [B,CG] |[M:5/8] [F,A,CF]-[F,A,CF]- [F,A,CF]3 |] %30
V:2
 z3 z2 [F,CF] | [F,CF]>[F,CF][F,CF] [E,^C]2 [E,C] | [D,D]3 [D,A,D]2 [D,F,] | %3
 [B,,B,]>[B,,B,][B,,B,] [B,,B,]2 [B,,B,] |[M:5/8] [F,,F,]-[F,,F,]- [F,,F,]3 |[M:1/8] [F,A,C] | %6
[M:3/4] [F,CF]>[F,CF] [F,CF] [F,DF]2 [F,DF] | [F,CF]3 [F,A,C]2 E, | D,>E, F, E,2 D, | %9
[M:5/8] [A,,E,A,]-[A,,E,A,]- [A,,E,A,]3 |[M:1/8] E, |[M:3/4] [F,CF]>[F,CF] [F,CF] [G,CE]2 [G,CE] | %12
 [A,C_E]3 [D,A,D]2 [D,A,D] | [B,,B,]>[B,,B,] [B,,B,] B,,2 B,, |[M:5/8] F,-F,- F,3 |[M:1/8] F, | %16
[M:3/4] D,>[D,A,] [D,A,] [^F,D]2 [F,D] | [G,DG]3 [A,DF]2 A, | A,>G,[K:bass] F, E,2 D, | %19
[M:5/8] [A,,E,]-[A,,E,]- [A,,E,]3 |[M:1/8] [G,B,C] |[M:3/4] A,>A, A, [F,A,C]2 [F,B,F] | %22
 [F,F]2 z2 z2 | D,->[D,-G,] [D,A,] [G,B,D]2 [^F,CD] |[M:5/8] B,-B,- B,3 |[M:1/8] [E,B,] | %26
[M:3/4] [F,A,C]2 [F,B,F] [F,CF]2 [E,C]/[E,C]/ | %27
[M:17/16] [D,D]/-[D,D]/-[D,D]/-[D,D]/-[D,D]/-[D,D]-<[D,D][^C,_A,]/-[C,A,]/-[C,A,]-<[C,A,][C,A,]/[C,A,]/ | %28
[M:3/4] [C,A,]>A, F, C,2 C, |[M:5/8] F,,-F,,- F,,3 |] %30
V:3
 x6 | x6 | x6 | x6 |[M:5/8] x5 |[M:1/8] x |[M:3/4] x6 | x6 | x6 |[M:5/8] x5 |[M:1/8] x | %11
[M:3/4] x6 | x6 | x6 |[M:5/8] x5 |[M:1/8] x |[M:3/4] x6 | x6 | x6 |[M:5/8] x5 |[M:1/8] x | %21
[M:3/4] C4 z2 | z2 F F2 [CA] | D4 z2 |[M:5/8] z2 D D2 |[M:1/8] x |[M:3/4] x6 |[M:17/16] x17/2 | %28
[M:3/4] x6 |[M:5/8] x5 |] %30
V:4
 x6 | x6 | x6 | x6 |[M:5/8] x5 |[M:1/8] x |[M:3/4] x6 | x6 | x6 |[M:5/8] x5 |[M:1/8] x | %11
[M:3/4] x6 | x6 | x6 |[M:5/8] x5 |[M:1/8] x |[M:3/4] x6 | x6 | x2[K:bass] x4 |[M:5/8] x5 | %20
[M:1/8] x |[M:3/4] F,4 z2 | C2- [C,C-] [F,C]2 [A,,F,] | F,2 z2 z2 |[M:5/8] [G,D]2 D, G,2 | %25
[M:1/8] x |[M:3/4] x6 |[M:17/16] x17/2 |[M:3/4] x6 |[M:5/8] x5 |] %30

